X:1
T:North Hambo
C:Bill Quern  2004
M:3/4
L:1/8
K:Gm
"Gm"G2 GA BG|"F"A2 AB cA|"Bb"d2 df =e^c|"D7"d2 dc BA|
"Gm"G2 GA BG|"F"A2 AB cA|"Bb"d2 df =e^c|"D7"d4d2:|
|:"Gm" g2 Bg B2|"F"f2 f=e d2|"A"^cd =eg fe|"Bb"f=e B2B2|
"Gm" g2 Bg B2|"F"f2 f=e d2|"A"^cd =ec ec|"D"d4d2:|
W: © 2004 Bill Quern.  All rights reserved.
